X:539
T: Die schnste Schferin (239), S. 514f
N: T0427
O: Luxemburg
S: Singendes Volk, Esch-Alzette, 1937 posth.]
N: Straen, fff Witry, 10.1.1933
R: Liebeslied]
M: 4/4
L: 1/8
K: Bb
F2 | B3FDFBA | AGG2z2
cd | e3cAFdc | B2z4
F2 | B3FDFBA | AGG2z2
cd | e3cAFdc | B2z4
d2 | c3dcdcB | Acf2z2
cf | =e3dcBAG | F2e2d2
c2 | B3FDFBA | AGG2z2
cd | e3cAFdc | B2z4

